/* XPM */
static char *anki[] = {
/* columns rows colors chars-per-pixel */
"32 32 118 2 ",
"   c #4E4F50",
".  c #7A858C",
"X  c #A0A4A7",
"o  c #A4A7A9",
"O  c #B7B7B7",
"+  c #9CA5AC",
"@  c #8B959C",
"#  c #A6ADB2",
"$  c #7E94A4",
"%  c #D9D9D9",
"&  c #97B5CA",
"*  c #EEEEEE",
"=  c #AFBBC3",
"-  c #B1C0CA",
";  c #AFBDC6",
":  c #99B8CE",
">  c #C1CCD3",
",  c #C9D2D8",
"<  c #F1F1F1",
"1  c #B8C7D1",
"2  c #9DC0D8",
"3  c #A5C3D9",
"4  c #97B9D1",
"5  c #98BED9",
"6  c #D0DAE0",
"7  c #F7F7F7",
"8  c #FBFBFB",
"9  c #BBCAD4",
"0  c #BDCCD6",
"q  c #BED3E1",
"w  c #A3C7E1",
"e  c #B5CCDD",
"r  c #D6DFE6",
"t  c #D9E1E7",
"y  c #F7F7F8",
"u  c #C6D4DD",
"i  c #C4D3DC",
"p  c #A2C6E0",
"a  c #CAD6DF",
"s  c #D8E2E9",
"d  c None",
"f  c #E7EDF1",
"g  c #9BC3DF",
"h  c #A6C6DD",
"j  c #BBCEDB",
"k  c #9EC5E1",
"l  c #A4CAE5",
"z  c #B1CFE4",
"x  c #ABD1EC",
"c  c #B8D3E7",
"v  c #FAFBFB",
"b  c #F6F8F9",
"n  c #FCFCFC",
"m  c #C7D4DD",
"M  c #C9D9E4",
"N  c #D3DDE4",
"B  c #CEE0EC",
"V  c #DAE3E9",
"C  c #DEEAF3",
"Z  c #D3E5F2",
"A  c #FDFDFE",
"S  c #E0E7EC",
"D  c #E1E8ED",
"F  c #E4EAEF",
"G  c #E4EBEF",
"H  c #E1EBF1",
"J  c #E1EBF2",
"K  c #E4EBF0",
"L  c #E3ECF3",
"P  c #E7EDF1",
"I  c #E2ECF4",
"U  c #E3EFF7",
"Y  c #E5EEF4",
"T  c #E7EEF4",
"R  c #E8EDF1",
"E  c #E8EEF1",
"W  c #E8EEF2",
"Q  c #E8F0F5",
"!  c #EBF0F4",
"~  c #E9F0F6",
"^  c #EBF1F6",
"/  c #ECF1F4",
"(  c #EFF3F6",
")  c #EEF3F7",
"_  c #EFF4F7",
"`  c #EBF3F8",
"'  c #EFF5F9",
"]  c #F0F5F8",
"[  c #F2F5F8",
"{  c #F2F6F9",
"}  c #F3F6F9",
"|  c #F2F6F8",
" . c #F0F6FA",
".. c #F3F7FA",
"X. c #F4F7F9",
"o. c #F5F8FA",
"O. c #F5F8FB",
"+. c #F5F9FB",
"@. c #F6F8FA",
"#. c #F6F9FB",
"$. c #F7FAFB",
"%. c #F6F9FC",
"&. c #F7FAFC",
"*. c #F8FAFC",
"=. c #F9FBFC",
"-. c #F9FBFD",
";. c #F9FCFD",
":. c #FAFCFD",
">. c #FBFCFD",
",. c #FBFCFE",
"<. c #FBFDFE",
"1. c #FCFDFE",
"2. c #FDFDFE",
"3. c #FDFEFE",
"4. c #FEFEFE",
"5. c #FEFEFF",
"6. c #FEFFFF",
"7. c white",
/* pixels */
"                                                                ",
"                                                                ",
"                        . . . . . . . .                         ",
"            % < 7 7 v v v v v v v v v v v v 7 7 < %             ",
"          * v 4.4.4.4.4.4.4.4.4.4.4.4.4.4.4.4.4.4.v *           ",
"        * A 4.4.4.4.4.4.4.4.4.4.4.4.4.4.4.4.4.4.4.4.S *         ",
"      % v 4.4.4.4.4.4.4.4.4.4.4.4.4.4.4.4.4.4.4.4.4.4.v %       ",
"      < 4.4.4.4.4.4.4.4.4.4.4.4.4.4.4.4.&.' <.4.4.4.4.4.<       ",
"      7 4.4.4.4.4.4.4.4.4.4.4.4.4.4.4.[ c z Z <.4.4.4.4.7       ",
"      r 4.4.<.<.<.<.<.<.<.<.<.<.<.4.4.Z l x c [ 4.4.4.4.r       ",
"      v <.<.<.<.<.<.<.<.<.<.<.<.<.<.$.c l x x I 4.<.<.4.v       ",
"    . v <.=.=.=.=.=.=.=.=.=.=.=.=.<.I l x x x Z =.=.<.=.v .     ",
"    . v =.$.$.$.$.$.$.$.$.$.$.$.$.$.M l x x x M $.&.$.&.v .     ",
"    . v $.$.$.$.$.$.$.$.$.$.$.$.$.^ l l x x x c ` $.$.$.v .     ",
"    . v [ [ [ [ [ Y C J Y ^ ^ ) ' B k l x x x x C X.[ [ v .     ",
"    . v _ ) ) ) J h h l l l z z z l l l l l l l M J L Y f .     ",
"    . v ) ^ ^ ) B g l l l l l l l l l l l l l l l l l l w .     ",
"    . v W W W W C z l l l l l l l l l l l l l l l l l l w .     ",
"    . f K F F F F V c l l l l l l l l l l l l l l l l l w .     ",
"    . a D S S S S S V M l l l l l l l l l l l l l l l l w .     ",
"    . 9 V V V V V V V V M l l l l l l l l l l l l l l l w .     ",
"      r V V V V V V V V V M l k l l l k l l k l l l l l 0       ",
"      r N N N N N N N N N N h g k k k k k k k k l l z M r       ",
"      6 N N N N N N N N N M d g k k k k k k k k k k c N 6       ",
"      , N N N N m m m N N j d k k k k k k k k k k k z N ,       ",
"      $ a m m m m m m m m d d g g g g g g g g g g g h a $       ",
"        = j m m m m m m j d g k g g g h h g g g g g d =         ",
"          = u m m m m m h d g k g g h M m h g k k p &           ",
"            @ = 2 9 0 0 3 3 w w w w r r r 0 3 2 : @             ",
"                    . . . . . . . . . . . . .                   ",
"                                                                ",
"                                                                "
};
